sp%
(Header)
(Generated by gcodetools from Inkscape.)
(Using default header. To add your own header create file "header" in the output dir.)
M3
(Header end.)
G21 (All units in mm)

(Start cutting path id: path10)
(Change tool to Default tool)

G00 Z5.000000
G00 X98.273811 Y210.154762

G01 Z-0.125000 F100.0(Penetrate)
G02 X100.289090 Y211.943700 Z-0.125000 I1.649871 J0.170981 F400.000000
G02 X102.446230 Y210.587164 Z-0.125000 I-0.843449 J-3.734629
G02 X102.914722 Y205.286963 Z-0.125000 I-3.792954 J-3.006071
G02 X99.138614 Y201.809918 Z-0.125000 I-6.918403 J3.724491
G02 X90.819920 Y202.400407 Z-0.125000 I-3.595403 J8.239973
G02 X85.756544 Y208.857558 Z-0.125000 I6.241275 J10.107896
G02 X87.322523 Y220.221629 Z-0.125000 I12.566522 J4.058254
G02 X96.544206 Y226.844452 Z-0.125000 I13.362481 J-8.874457
G02 X110.966233 Y224.330239 Z-0.125000 I4.496455 J-16.828356
G02 X119.135920 Y212.316769 Z-0.125000 I-11.526784 J-16.623327
G02 X115.685482 Y194.830401 Z-0.125000 I-21.057729 J-4.928462
G02 X100.868220 Y185.120230 Z-0.125000 I-19.883959 J14.181675
G02 X80.313865 Y189.500576 Z-0.125000 I-5.358796 J25.269205
G02 X69.066855 Y207.127953 Z-0.125000 I16.835834 J23.143695
G02 X74.373385 Y230.752572 Z-0.125000 I29.469932 J5.788786
G02 X94.814600 Y243.534141 Z-0.125000 I26.402631 J-19.488685
G02 X121.510988 Y237.303809 Z-0.125000 I6.218845 J-33.663755
G02 X135.825610 Y214.046374 Z-0.125000 I-22.140289 J-29.660975
G02 X128.673092 Y184.277157 Z-0.125000 I-37.852897 J-6.649112
G02 X102.597820 Y168.430540 Z-0.125000 I-32.918854 J24.790813
G02 X69.755014 Y176.504110 Z-0.125000 I-7.079587 J42.038738
G02 X52.377165 Y205.398347 Z-0.125000 I27.440496 J36.176422
G02 X61.370949 Y241.315324 Z-0.125000 I46.222163 J7.510279
G02 X93.084995 Y260.223831 Z-0.125000 I39.433727 J-30.089464
G02 X97.933278 Y260.748626 Z-0.125000 I7.836568 J-49.739978
G02 X102.809550 Y260.803568 Z-0.125000 I3.008654 J-50.607398
G00 Z5.000000

(End cutting path id: path10)


(Footer)
M5
G00 X0.0000 Y0.0000
M2
(Using default footer. To add your own footer create file "footer" in the output dir.)
(end)
%